X:1
T:Toreador Song (Carmen)
C:Georges Bizet
M:4/4
L:1/4
Q:1/4=120
K:F
F>G A>G | F>A c B | A>G F>G | A4 | G>A B>A | G>B c2 | B>A G>F | F4 |]
